public/images/partners/Amazon.svg

<svg width="85" height="50" viewBox="0 0 85 50" fill="none" xmlns="http://www.w3.org/2000/svg">
<g id="Amazon_Web_Services_Logo 1" clip-path="url(#clip0_20314_1120)">
<g id="Group">
<path id="Vector" d="M24.5905 18.2419C24.5905 19.2584 24.7004 20.0826 24.8927 20.687C25.1125 21.2914 25.3872 21.9507 25.7719 22.665C25.9092 22.8848 25.9642 23.1046 25.9642 23.2969C25.9642 23.5716 25.7993 23.8463 25.4422 24.1211L23.7114 25.2749C23.4642 25.4397 23.2169 25.5222 22.9971 25.5222C22.7224 25.5222 22.4477 25.3848 22.173 25.1375C21.7883 24.7254 21.4587 24.2859 21.1839 23.8463C20.9092 23.3793 20.6345 22.8573 20.3323 22.2254C18.1894 24.7529 15.4971 26.0167 12.2554 26.0167C9.94769 26.0167 8.10703 25.3573 6.76087 24.0386C5.41472 22.72 4.72791 20.9617 4.72791 18.7639C4.72791 16.4287 5.55208 14.5331 7.22791 13.1046C8.90373 11.676 11.129 10.9617 13.9587 10.9617C14.8927 10.9617 15.8543 11.0441 16.8708 11.1815C17.8872 11.3189 18.9312 11.5386 20.0301 11.7859V9.78039C20.0301 7.69248 19.5905 6.23643 18.7389 5.38479C17.8598 4.53314 16.3763 4.12105 14.2609 4.12105C13.2993 4.12105 12.3103 4.23094 11.2938 4.47819C10.2774 4.72544 9.28834 5.02764 8.32681 5.41226C7.88725 5.60457 7.55758 5.71446 7.36527 5.7694C7.17296 5.82435 7.0356 5.85182 6.92571 5.85182C6.54109 5.85182 6.34878 5.57709 6.34878 5.00017V3.65402C6.34878 3.21446 6.40373 2.88479 6.54109 2.69248C6.67845 2.50017 6.92571 2.30786 7.31032 2.11556C8.27186 1.62105 9.42571 1.20896 10.7719 0.879291C12.118 0.522148 13.5466 0.357313 15.0576 0.357313C18.3268 0.357313 20.7169 1.09907 22.2554 2.58259C23.7664 4.0661 24.5356 6.31885 24.5356 9.34083V18.2419H24.5905ZM13.4367 22.4178C14.3433 22.4178 15.2774 22.2529 16.2664 21.9233C17.2554 21.5936 18.1345 20.9892 18.8763 20.165C19.3158 19.643 19.6455 19.0661 19.8103 18.4068C19.9752 17.7474 20.085 16.9507 20.085 16.0167V14.8628C19.2883 14.6705 18.4367 14.5057 17.5576 14.3958C16.6785 14.2859 15.8268 14.2309 14.9752 14.2309C13.1345 14.2309 11.7883 14.5881 10.8818 15.3298C9.97516 16.0716 9.5356 17.1156 9.5356 18.4892C9.5356 19.7804 9.86527 20.7419 10.5521 21.4013C11.2114 22.0881 12.173 22.4178 13.4367 22.4178ZM35.4971 25.3848C35.0026 25.3848 34.673 25.3024 34.4532 25.1101C34.2334 24.9452 34.0411 24.5606 33.8763 24.0386L27.4202 2.80237C27.2554 2.25292 27.173 1.89577 27.173 1.70347C27.173 1.26391 27.3927 1.01665 27.8323 1.01665H30.5246C31.0466 1.01665 31.4037 1.09907 31.596 1.29138C31.8158 1.45621 31.9807 1.84083 32.1455 2.36281L36.7609 20.5496L41.0466 2.36281C41.1839 1.81336 41.3488 1.45621 41.5686 1.29138C41.7883 1.12654 42.173 1.01665 42.6675 1.01665H44.8653C45.3872 1.01665 45.7444 1.09907 45.9642 1.29138C46.1839 1.45621 46.3763 1.84083 46.4861 2.36281L50.8268 20.7694L55.5795 2.36281C55.7444 1.81336 55.9367 1.45621 56.129 1.29138C56.3488 1.12654 56.7059 1.01665 57.2004 1.01665H59.7554C60.1949 1.01665 60.4422 1.23643 60.4422 1.70347C60.4422 1.84083 60.4147 1.97819 60.3872 2.14303C60.3598 2.30786 60.3048 2.52764 60.1949 2.82984L53.5741 24.0661C53.4092 24.6156 53.2169 24.9727 52.9971 25.1375C52.7774 25.3024 52.4202 25.4123 51.9532 25.4123H49.5905C49.0686 25.4123 48.7114 25.3298 48.4916 25.1375C48.2719 24.9452 48.0795 24.5881 47.9697 24.0386L43.7114 6.31885L39.4807 24.0112C39.3433 24.5606 39.1785 24.9178 38.9587 25.1101C38.7389 25.3024 38.3543 25.3848 37.8598 25.3848H35.4971ZM70.7993 26.1265C69.3708 26.1265 67.9422 25.9617 66.5686 25.632C65.1949 25.3024 64.1235 24.9452 63.4092 24.5331C62.9697 24.2859 62.6675 24.0112 62.5576 23.7639C62.4477 23.5167 62.3927 23.2419 62.3927 22.9947V21.5936C62.3927 21.0167 62.6125 20.7419 63.0246 20.7419C63.1894 20.7419 63.3543 20.7694 63.5191 20.8243C63.6839 20.8793 63.9312 20.9892 64.2059 21.0991C65.14 21.5112 66.1565 21.8408 67.2279 22.0606C68.3268 22.2804 69.3982 22.3903 70.4971 22.3903C72.2279 22.3903 73.5741 22.0881 74.5081 21.4837C75.4422 20.8793 75.9367 20.0002 75.9367 18.8738C75.9367 18.1046 75.6894 17.4727 75.1949 16.9507C74.7004 16.4287 73.7664 15.9617 72.4202 15.5221L68.4367 14.2859C66.4312 13.654 64.9477 12.72 64.0411 11.4837C63.1345 10.2749 62.6675 8.92874 62.6675 7.50017C62.6675 6.34632 62.9147 5.32984 63.4092 4.45072C63.9037 3.5716 64.5631 2.80237 65.3872 2.19797C66.2114 1.5661 67.1455 1.09907 68.2444 0.769401C69.3433 0.439731 70.4971 0.302368 71.7059 0.302368C72.3103 0.302368 72.9422 0.329841 73.5466 0.412258C74.1785 0.494676 74.7554 0.604566 75.3323 0.714456C75.8817 0.851819 76.4037 0.989181 76.8982 1.15402C77.3927 1.31885 77.7774 1.48369 78.0521 1.64852C78.4367 1.8683 78.7114 2.08808 78.8763 2.33534C79.0411 2.55512 79.1235 2.85731 79.1235 3.24193V4.53314C79.1235 5.11006 78.9037 5.41226 78.4916 5.41226C78.2719 5.41226 77.9147 5.30237 77.4477 5.08259C75.8817 4.3683 74.1235 4.01116 72.173 4.01116C70.607 4.01116 69.3708 4.25841 68.5191 4.78039C67.6675 5.30237 67.2279 6.09907 67.2279 7.22545C67.2279 7.99468 67.5026 8.65402 68.0521 9.176C68.6015 9.69797 69.618 10.22 71.0741 10.687L74.9752 11.9232C76.9532 12.5551 78.3817 13.4342 79.2334 14.5606C80.085 15.687 80.4971 16.9782 80.4971 18.4068C80.4971 19.5881 80.2499 20.6595 79.7828 21.5936C79.2883 22.5276 78.629 23.3518 77.7774 24.0112C76.9257 24.698 75.9092 25.1925 74.7279 25.5496C73.4916 25.9342 72.2004 26.1265 70.7993 26.1265Z" fill="#252F3E"/>
<g id="Group_2">
<path id="Vector_2" fillRule="evenodd" clip-rule="evenodd" d="M75.9916 39.4781C66.9532 46.154 53.8213 49.6979 42.5301 49.6979C26.7059 49.6979 12.4477 43.8463 1.67844 34.121C0.82679 33.3518 1.59602 32.3078 2.6125 32.9122C14.2609 39.6704 28.629 43.7638 43.4916 43.7638C53.5191 43.7638 64.5356 41.6759 74.673 37.3902C76.1839 36.7034 77.4751 38.3792 75.9916 39.4781Z" fill="#FF9900"/>
<path id="Vector_3" fillRule="evenodd" clip-rule="evenodd" d="M79.7553 35.1925C78.6015 33.7089 72.118 34.4782 69.1784 34.8353C68.2993 34.9452 68.1619 34.176 68.9586 33.5991C74.1235 29.9727 82.6125 31.0166 83.6015 32.2254C84.5905 33.4617 83.3268 41.9507 78.4916 46.0166C77.7498 46.6485 77.0356 46.3188 77.3652 45.4947C78.4641 42.7749 80.9092 36.6485 79.7553 35.1925Z" fill="#FF9900"/>
</g>
</g>
</g>
<defs>
<clipPath id="clip0_20314_1120">
<rect width="84" height="50" fill="white" transform="translate(0.32251 0.00012207)"/>
</clipPath>
</defs>
</svg>

<svg xmlns="http://www.w3.org/2000/svg" width="85" height="50" fill="none"><g clip-path="url(#a)"><path fill="#252F3E" d="M24.59 18.242c0 1.016.11 1.84.303 2.445.22.604.494 1.264.879 1.978.137.22.192.44.192.632 0 .275-.165.55-.522.824l-1.73 1.154c-.248.165-.495.247-.715.247-.275 0-.55-.137-.824-.384a8.5 8.5 0 0 1-.99-1.292 21 21 0 0 1-.85-1.62q-3.216 3.79-8.078 3.79c-2.307 0-4.148-.659-5.494-1.977s-2.033-3.077-2.033-5.275c0-2.335.824-4.23 2.5-5.66 1.676-1.428 3.901-2.142 6.73-2.142.935 0 1.896.082 2.913.22 1.016.137 2.06.357 3.16.604V9.78c0-2.088-.44-3.544-1.292-4.395-.88-.852-2.363-1.264-4.478-1.264-.962 0-1.95.11-2.967.357s-2.006.55-2.967.934c-.44.193-.77.302-.962.357s-.33.083-.44.083c-.384 0-.576-.275-.576-.852V3.654c0-.44.055-.77.192-.962s.385-.384.77-.576q1.441-.742 3.46-1.237c1.347-.357 2.776-.522 4.287-.522 3.269 0 5.659.742 7.197 2.226 1.511 1.483 2.28 3.736 2.28 6.758v8.9zm-11.153 4.176c.906 0 1.84-.165 2.83-.495.988-.33 1.867-.934 2.61-1.758.439-.522.768-1.099.933-1.758a10 10 0 0 0 .275-2.39v-1.154a23 23 0 0 0-2.527-.467 21 21 0 0 0-2.583-.165c-1.84 0-3.187.357-4.093 1.099s-1.346 1.786-1.346 3.16c0 1.29.33 2.252 1.016 2.911.66.687 1.621 1.017 2.885 1.017m22.06 2.967c-.494 0-.824-.083-1.044-.275-.22-.165-.412-.55-.577-1.071L27.42 2.802c-.165-.55-.247-.906-.247-1.099 0-.44.22-.686.66-.686h2.692c.522 0 .879.082 1.071.274.22.165.385.55.55 1.072L36.76 20.55l4.286-18.187c.137-.55.302-.907.522-1.072.22-.164.604-.274 1.098-.274h2.198c.522 0 .88.082 1.1.274.219.165.411.55.521 1.072l4.34 18.406L55.58 2.363c.164-.55.357-.907.549-1.072.22-.164.577-.274 1.071-.274h2.555c.44 0 .687.22.687.686 0 .138-.027.275-.055.44a4 4 0 0 1-.192.687l-6.62 21.236q-.248.825-.578 1.072c-.22.164-.577.274-1.044.274H49.59c-.521 0-.879-.082-1.098-.274-.22-.193-.412-.55-.522-1.1L43.71 6.319l-4.23 17.693c-.138.55-.303.907-.522 1.1-.22.191-.605.274-1.1.274zm35.302.741c-1.428 0-2.857-.164-4.23-.494s-2.445-.687-3.16-1.099c-.44-.247-.742-.522-.851-.77a1.9 1.9 0 0 1-.165-.768v-1.401c0-.577.22-.852.632-.852q.247 0 .494.082c.165.055.412.165.687.275.934.412 1.95.742 3.022.962 1.099.22 2.17.33 3.27.33 1.73 0 3.076-.303 4.01-.907s1.429-1.484 1.429-2.61c0-.77-.248-1.401-.742-1.923-.495-.522-1.429-.99-2.775-1.429l-3.983-1.236c-2.006-.632-3.49-1.566-4.396-2.802-.906-1.21-1.373-2.555-1.373-3.984q0-1.73.741-3.05a7.1 7.1 0 0 1 1.978-2.252c.824-.632 1.758-1.099 2.857-1.429s2.253-.467 3.462-.467c.604 0 1.236.028 1.84.11.632.083 1.21.193 1.786.302.55.138 1.072.275 1.566.44q.743.248 1.154.495c.385.22.66.44.824.686q.248.33.248.907v1.291c0 .577-.22.88-.632.88-.22 0-.577-.11-1.044-.33Q75.099 4.01 72.173 4.01c-1.566 0-2.802.247-3.654.77-.852.521-1.291 1.318-1.291 2.444 0 .77.275 1.429.824 1.951.55.522 1.566 1.044 3.022 1.511l3.901 1.236c1.978.632 3.407 1.511 4.258 2.638.852 1.126 1.264 2.417 1.264 3.846 0 1.181-.247 2.253-.714 3.187a7.4 7.4 0 0 1-2.006 2.417c-.851.687-1.868 1.181-3.05 1.539a13 13 0 0 1-3.928.576"/><g fill="#F90" clip-rule="evenodd"><path d="M75.992 39.478c-9.039 6.676-22.17 10.22-33.462 10.22-15.824 0-30.082-5.852-40.852-15.577-.851-.77-.082-1.813.934-1.209 11.649 6.758 26.017 10.852 40.88 10.852 10.027 0 21.044-2.088 31.181-6.374 1.51-.687 2.802.99 1.319 2.088"/><path d="M79.755 35.193c-1.153-1.484-7.637-.715-10.577-.358-.879.11-1.016-.659-.22-1.236 5.166-3.626 13.654-2.582 14.644-1.374.989 1.237-.275 9.726-5.11 13.792-.742.631-1.456.302-1.127-.522 1.1-2.72 3.544-8.846 2.39-10.302"/></g></g><defs><clipPath id="a"><path fill="#fff" d="M.323 0h84v50h-84z"/></clipPath></defs></svg>
